source/img/logo-desktop.svg

<svg xmlns="http://www.w3.org/2000/svg" fill="none" viewBox="0 0 202 60">
  <g clip-path="url(#clip0)">
    <path fill="#FDC305" d="M59.8801 24A25.6096 25.6096 0 0039.6359 8.4793a25.6095 25.6095 0 00-23.6075 9.6644 25.6097 25.6097 0 004.3598 35.8301A25.6099 25.6099 0 0032.5101 59.2c-.58-2.09-1.17-4.4-1.69-6.85a32.3098 32.3098 0 004.76 2.55s.12 2.16.28 4.57a25.4823 25.4823 0 005.33-.47 2.1374 2.1374 0 010-.76c.29-1.87 1.09-5.24 1.25-7.41a15.223 15.223 0 002.9-3.71l-.06.44c-.55 4.26-1.7 8.81-2.4 10.07a5.5848 5.5848 0 01-.83 1.15 25.6397 25.6397 0 0019.7631-23.927A25.6398 25.6398 0 0059.8801 24zm-1.47 3.79c-.44.43-1.35.72-1.5-.58-.15-1.3-.19-2.21-.19-2.21s-1.93-3.43-2.65-3.47c-.72-.04-5.83 3.47-7.18 5-1.17 1.29-1.4 1.2-1.4 3.47 0 1.71.22 8.17.1 13.11l-8.15 2.17a64.0059 64.0059 0 01-7.8 1.72l-1-5.83h-.14L25.9301 28s-3.81-1.44-5.21-1.83a3.7604 3.7604 0 00-4 .63 5.069 5.069 0 00-1.73 3.85c.2113.4648.3723.9509.48 1.45.05.48-1.2.43-2 .43s-.92-1.44-.29-3.13a22.8082 22.8082 0 011.82-3.74 11.8686 11.8686 0 012.07-2.89s.14-.34 1.25-.24c1.11.1 7.28.43 7.28.43l.05-2.27a142.7631 142.7631 0 0120.24-1.34v1.83a22.52 22.52 0 018.14-2 .9094.9094 0 01.77.39c.34.43 2.41 3 2.65 3.37a28.0077 28.0077 0 011.83 3 6.2428 6.2428 0 01-.87 1.84v.01z"/>
    <path fill="#F06351" d="M56.46 21.67c.47.6.88 1.13 1 1.29a28.0077 28.0077 0 011.83 3 6.2417 6.2417 0 01-.86 1.78c-.44.43-1.35.72-1.5-.58-.15-1.3-.21-2.16-.21-2.16s-1.93-3.43-2.65-3.47c-.72-.04-5.83 3.47-7.18 5-1.17 1.29-1.4 1.2-1.4 3.47 0 1.5.17 6.65.13 11.23 1.81.2 4.47.7 5.27 1.88 0 0-.29-7.18 7.81-3.42 0 0 .28-9.79 11.46-7.28a43.7205 43.7205 0 00-13.7-10.74z"/>
    <path fill="#F06351" d="M45.93 19.35a90.4414 90.4414 0 00-1.4-16.53s-.15-1.3-.87-.24a14.263 14.263 0 00-1.2 4 70.8796 70.8796 0 00-12.82.34c-.82-2.75-2.22-4-2.89-3.67-.67.33-.75 3.28-.75 3.28l-.33 14.16a142.7789 142.7789 0 0120.26-1.34z"/>
    <path fill="#E55645" d="M45.35 47.12c.13-1.07.2-2.49.24-4.06l-8.15 2.17a64.0052 64.0052 0 01-7.8 1.77l1.11 5c0 .11 0 .22.07.33a32.32 32.32 0 004.76 2.55 42.4198 42.4198 0 006.88-4.13v.06a15.2196 15.2196 0 002.89-3.69z"/>
    <path fill="black" d="M32 16.22c-.05-.1 1 .68 1.41.92.41.24.61.42.61.59 0 .17-.26.34-.62.34s-.92-.12-1-.26c-.08-.14.6 0 .94 0h.29A8.0825 8.0825 0 0132 16.22z"/>
    <path fill="black" d="M39.5 16.33s-1 1.28-1.09 1.34c-.09.06-.17.34.19.29a8.0909 8.0909 0 001.22-.28c.11-.06.07-.2-.12-.18-.19.02-.68.05-1 .11l.85-1.27s.03-.12-.05-.01z"/>
    <path fill="black" d="M36.36 22.44a2.2994 2.2994 0 001.09-1c.28-.66 0-.91-.44-1a2.4502 2.4502 0 00-1.75.34c-.39.37-.34.73 0 1a5.1606 5.1606 0 001.1.66z"/>
    <path fill="#F06351" d="M36 23.7a2.0505 2.0505 0 01-.46.6 1.73 1.73 0 01-1 .38 2.18 2.18 0 01-1.54-.44 1.9989 1.9989 0 01-.53-.45 1.0012 1.0012 0 00-.36-.25s.75 4.11 2.57 4.77c1.82.66 2.16-.76 2.21-1.14a5.63 5.63 0 00-.82-3.24c0-.3-.02-.1-.07-.23z"/>
    <path fill="black" d="M34.3001 24.84a3.5005 3.5005 0 01-2.35-1.43.15.15 0 010-.2.14.14 0 01.2 0 3.219 3.219 0 002.11 1.31 2.1099 2.1099 0 001.64-1l.14-.19.1.22s.38.76 1 .8c.62.04 1.06-.42 1.63-1.29a.1442.1442 0 01.24.16c-.6667.98-1.2967 1.45-1.89 1.41a1.5502 1.5502 0 01-1.12-.73 2.2606 2.2606 0 01-1.7.94z"/>
    <path fill="#FDC305" d="M36.26 38.3c2.0711 0 3.75-1.6789 3.75-3.75s-1.6789-3.75-3.75-3.75-3.75 1.6789-3.75 3.75 1.6789 3.75 3.75 3.75z"/>
    <path fill="#111111" d="M41.23 31.5l-3.13 1.31 1.15-5.63-7.5 9.76 3.13-1.31-1.15 5.64 7.5-9.77zm-7.39 3.83L38 29.92l-.81 4 2-.82L35 38.52l.81-4-1.97.81z"/>
    <path fill="#111111" d="M32.4399 33.86c.6186 0 1.12-.5014 1.12-1.12 0-.6186-.5014-1.12-1.12-1.12-.6185 0-1.12.5014-1.12 1.12 0 .6186.5015 1.12 1.12 1.12z"/>
    <path fill="#111111" d="M38.96 37.92a.79.79 0 100-1.58.79.79 0 000 1.58z"/>
    <path fill="#111111" d="M39.9199 35.75a.35.35 0 100-.7.35.35 0 000 .7z"/>
    <path fill="#F06351" d="M45.88 21.16a57.4668 57.4668 0 00-5.09 5.21 31.8773 31.8773 0 01-5.31 4.9c-.22-.53-1.63-1.52-1.63-1.52s-3.14-2.15-5.2-3.84a31.8942 31.8942 0 01-3.14-3l-2-.11a22.6298 22.6298 0 0012 8.84c.86-.14 3.28-1.87 5.09-3.28a57.6637 57.6637 0 006-5.91 6.3803 6.3803 0 001.14-2c-1.14.38-1.86.71-1.86.71z"/>
    <path fill="#FDC305" d="M65.22 3.5l-8.46 9.44-1.22-1.99L63.69 0l1.53 3.5z"/>
    <path fill="#FDC305" d="M62.65 17.26l5.54-4.11-.78-3.74-5.4 4.81.64 3.04z"/>
    <path fill="#FDC305" d="M59.92 49.37l6.13 3.18 3.01-2.34-6.69-2.75-2.45 1.91z"/>
    <path fill="#FDC305" d="M1.95 5.97l3.07-3.36 9.29 9-1.22 2.28L1.95 5.97z"/>
    <path fill="#FDC305" d="M7.38 16.28l-4.7-3.13-2.4 3.87 5.15 2.4 1.95-3.14z"/>
    <path fill="#FDC305" d="M13.91 52.55L9.36 55.9l2.8 3.58 4.02-4.02-2.27-2.91z"/>
    <path fill="#F06351" d="M25.93 28s-3.81-1.44-5.21-1.83a3.7604 3.7604 0 00-4 .63 5.07 5.07 0 00-1.73 3.85 7.14 7.14 0 01.48 1.45c.05.48-1.2.43-2 .43s-.92-1.44-.29-3.13A22.8082 22.8082 0 0115 25.66c-5.45 2.84-15 9.4-15 9.4a45.8253 45.8253 0 018.19.24c5.25.53 5 4.67 5 4.67a38.6256 38.6256 0 015.63-1.11c2.12-.14 2.27 2.12 2.27 2.12l.53 3.86a18.2936 18.2936 0 012.65-2.36 6.06 6.06 0 014.38-1.3L25.93 28z"/>
    <path fill="#111111" d="M85.6599 42a8.2908 8.2908 0 01-1.4-5.19v-7.5a8.4205 8.4205 0 011.38-5.24c.9267-1.1933 2.51-1.7867 4.75-1.78 2.24.0067 3.7567.53 4.55 1.57a6.7194 6.7194 0 011.33 4.49v1.76h-4.14V28.2a9.9846 9.9846 0 00-.13-1.5 1.6796 1.6796 0 00-.47-.95 1.5589 1.5589 0 00-1.15-.37 1.4598 1.4598 0 00-1.5.75 5.4717 5.4717 0 00-.34 2.2v9.52a4.7812 4.7812 0 00.39 2.2 1.4797 1.4797 0 001.45.73 1.35 1.35 0 001.4-.74 5.84 5.84 0 00.31-2.19v-2h4.14v1.73a7.2498 7.2498 0 01-1.23 4.61c-.88 1.1-2.4 1.64-4.56 1.64-2.16 0-3.85-.6-4.78-1.83z"/>
    <path fill="#111111" d="M101.91 22.58h4.74l4 21h-3.94l-.71-4.64h-3.32l-.8 4.61h-4l4.03-20.97zm3.65 13.72l-1.26-8.44-1.25 8.44h2.51z"/>
    <path fill="#111111" d="M113.72 25.74h-3.24v-3.16h10.72v3.16H118v17.81h-4.29l.01-17.81z"/>
    <path fill="#444444" d="M129.61 22.58h8.13v2.18h-5.2v6.93h4.22v2.07h-4.22v7.69h5.25v2.1h-8.18V22.58z"/>
    <path fill="#444444" d="M140.15 22.58h2l6 13.93V22.58h2.44v21h-1.87l-6-14.32v14.29h-2.48l-.09-20.97z"/>
    <path fill="#444444" d="M153.82 22.58h8.12v2.18h-5.2v6.93H161v2.07h-4.22v7.69H162v2.1h-8.18V22.58z"/>
    <path fill="#444444" d="M164.35 22.58h4.22a7.0002 7.0002 0 014.67 1.31c1 .87 1.49 2.29 1.49 4.26 0 2.6667-.863 4.2967-2.59 4.89l3 10.51h-2.84l-2.75-9.84h-2.27v9.84h-2.93V22.58zm4 9a3.8704 3.8704 0 002.7-.76c.314-.3719.549-.8042.69-1.2702.141-.4661.185-.956.13-1.4398a5.8513 5.8513 0 00-.29-2 1.8871 1.8871 0 00-.391-.6413 1.8837 1.8837 0 00-.609-.4387 4.759 4.759 0 00-2.05-.35h-1.29v6.94l1.11-.04z"/>
    <path fill="#444444" d="M178.67 42a9.2471 9.2471 0 01-1.27-5.35v-7a13.5127 13.5127 0 01.5-4 4.483 4.483 0 011.74-2.41 5.9093 5.9093 0 013.36-.84 5.2587 5.2587 0 014.18 1.48 7.0013 7.0013 0 011.28 4.63v.78h-2.75v-.65a11.4914 11.4914 0 00-.18-2.32 1.9991 1.9991 0 00-.76-1.23 2.9988 2.9988 0 00-1.72-.41 2.5209 2.5209 0 00-1.81.56 2.5571 2.5571 0 00-.77 1.48 14.7183 14.7183 0 00-.17 2.49V37a7.5178 7.5178 0 00.59 3.46c.271.3354.616.6043 1.007.7861a2.8295 2.8295 0 003.463-.8761 8.1044 8.1044 0 00.61-3.65v-1.48h-2.66v-2.07h5.3v10.38h-1.81l-.29-2.41a3.685 3.685 0 01-1.4 1.985 3.6881 3.6881 0 01-2.33.685 4.6573 4.6573 0 01-2.287-.3772A4.6576 4.6576 0 01178.67 42z"/>
    <path fill="#444444" d="M194.69 36.15l-4.53-13.57h2.72l3.21 10.12 3.16-10.12H202l-4.5 13.57v7.4h-2.8l-.01-7.4z"/>
  </g>
  <defs>
    <clipPath id="clip0">
      <path fill="white" d="M0 0h201.99v59.48H0z"/>
    </clipPath>
  </defs>
</svg>

<svg width="202" height="60" viewBox="0 0 202 60" fill="none" xmlns="http://www.w3.org/2000/svg">
<g clip-path="url(#clip0)">
<path d="M59.8801 24C58.1562 19.8695 55.3799 16.263 51.8279 13.5398C48.276 10.8166 44.0723 9.07178 39.6359 8.47931C35.1996 7.88684 30.6854 8.46738 26.5433 10.1631C22.4012 11.8588 18.7758 14.6104 16.0284 18.1437C13.281 21.677 11.5076 25.8687 10.8849 30.3009C10.2622 34.7332 10.812 39.2512 12.4794 43.4048C14.1468 47.5583 16.8737 51.2024 20.3882 53.9738C23.9027 56.7452 28.0822 58.5471 32.5101 59.2C31.9301 57.11 31.3401 54.8 30.8201 52.35C32.3328 53.3313 33.925 54.1843 35.5801 54.9C35.5801 54.9 35.7001 57.06 35.8601 59.47C37.6483 59.5008 39.4348 59.3433 41.1901 59C41.1447 58.7487 41.1447 58.4913 41.1901 58.24C41.4801 56.37 42.2801 53 42.4401 50.83C43.5933 49.7513 44.5717 48.4996 45.3401 47.12L45.2801 47.56C44.7301 51.82 43.5801 56.37 42.8801 57.63C42.6534 58.0471 42.3745 58.4335 42.0501 58.78C45.6699 57.9308 49.0617 56.3046 51.9903 54.014C54.919 51.7233 57.3145 48.8232 59.0106 45.5146C60.7068 42.2059 61.6631 38.568 61.8132 34.853C61.9634 31.1379 61.3037 27.4347 59.8801 24ZM58.4101 27.79C57.9701 28.22 57.0601 28.51 56.9101 27.21C56.7601 25.91 56.7201 25 56.7201 25C56.7201 25 54.7901 21.57 54.0701 21.53C53.3501 21.49 48.2401 25 46.8901 26.53C45.7201 27.82 45.4901 27.73 45.4901 30C45.4901 31.71 45.7101 38.17 45.5901 43.11L37.4401 45.28C34.8784 46.0152 32.2733 46.5896 29.6401 47L28.6401 41.17H28.5001L25.9301 28C25.9301 28 22.1201 26.56 20.7201 26.17C20.0627 25.8824 19.3368 25.7889 18.628 25.9005C17.9192 26.0122 17.2572 26.3243 16.7201 26.8C16.1721 27.2798 15.7339 27.872 15.4354 28.5364C15.1368 29.2008 14.985 29.9217 14.9901 30.65C15.2014 31.1148 15.3624 31.6009 15.4701 32.1C15.5201 32.58 14.2701 32.53 13.4701 32.53C12.6701 32.53 12.5501 31.09 13.1801 29.4C13.6716 28.1005 14.2808 26.8486 15.0001 25.66C15.5411 24.5982 16.2389 23.624 17.0701 22.77C17.0701 22.77 17.2101 22.43 18.3201 22.53C19.4301 22.63 25.6001 22.96 25.6001 22.96L25.6501 20.69C32.3564 19.764 39.1202 19.3162 45.8901 19.35C45.8901 19.96 45.8901 20.57 45.8901 21.18C48.4543 20.0098 51.2155 19.3314 54.0301 19.18C54.1807 19.1762 54.3298 19.2098 54.4642 19.2779C54.5986 19.346 54.714 19.4463 54.8001 19.57C55.1401 20 57.2101 22.57 57.4501 22.94C58.1223 23.9007 58.7335 24.9027 59.2801 25.94C59.0927 26.5968 58.7988 27.2184 58.4101 27.78V27.79Z" fill="#FDC305"/>
<path d="M56.46 21.67C56.93 22.27 57.34 22.8 57.46 22.96C58.1322 23.9207 58.7434 24.9227 59.29 25.96C59.0997 26.5953 58.8094 27.1961 58.43 27.74C57.99 28.17 57.08 28.46 56.93 27.16C56.78 25.86 56.72 25 56.72 25C56.72 25 54.79 21.57 54.07 21.53C53.35 21.49 48.24 25 46.89 26.53C45.72 27.82 45.49 27.73 45.49 30C45.49 31.5 45.66 36.65 45.62 41.23C47.43 41.43 50.09 41.93 50.89 43.11C50.89 43.11 50.6 35.93 58.7 39.69C58.7 39.69 58.98 29.9 70.16 32.41C66.3594 27.9478 61.7004 24.2955 56.46 21.67Z" fill="#F06351"/>
<path d="M45.93 19.35C45.9707 13.8087 45.5021 8.27548 44.53 2.82C44.53 2.82 44.38 1.52 43.66 2.58C43.0659 3.84722 42.6616 5.195 42.46 6.58C38.1852 6.30571 33.8943 6.41951 29.64 6.92C28.82 4.17 27.42 2.92 26.75 3.25C26.08 3.58 26 6.53 26 6.53L25.67 20.69C32.383 19.7631 39.1535 19.3153 45.93 19.35Z" fill="#F06351"/>
<path d="M45.35 47.12C45.48 46.05 45.55 44.63 45.59 43.06L37.44 45.23C34.8795 45.982 32.2744 46.5732 29.64 47L30.75 52C30.75 52.11 30.75 52.22 30.82 52.33C32.3328 53.3113 33.925 54.1643 35.58 54.88C37.9987 53.7238 40.3023 52.341 42.46 50.75V50.81C43.6081 49.7366 44.583 48.4918 45.35 47.12Z" fill="#E55645"/>
<path d="M32 16.22C31.95 16.12 33 16.9 33.41 17.14C33.82 17.38 34.02 17.56 34.02 17.73C34.02 17.9 33.76 18.07 33.4 18.07C33.04 18.07 32.48 17.95 32.4 17.81C32.32 17.67 33 17.81 33.34 17.81H33.63C33.0144 17.3596 32.4656 16.8243 32 16.22Z" fill="black"/>
<path d="M39.5 16.33C39.5 16.33 38.5 17.61 38.41 17.67C38.32 17.73 38.24 18.01 38.6 17.96C39.0133 17.8983 39.4212 17.8047 39.82 17.68C39.93 17.62 39.89 17.48 39.7 17.5C39.51 17.52 39.02 17.55 38.7 17.61L39.55 16.34C39.55 16.34 39.58 16.22 39.5 16.33Z" fill="black"/>
<path d="M36.36 22.44C36.8236 22.2358 37.2067 21.8843 37.45 21.44C37.73 20.78 37.45 20.53 37.01 20.44C36.4047 20.3296 35.78 20.4509 35.26 20.78C34.87 21.15 34.92 21.51 35.26 21.78C35.5978 22.0449 35.9673 22.2666 36.36 22.44Z" fill="black"/>
<path d="M36 23.7C35.8852 23.9268 35.7292 24.1302 35.54 24.3C35.2552 24.5291 34.9051 24.6622 34.54 24.68C33.9894 24.734 33.4389 24.5768 33 24.24C32.7984 24.1221 32.619 23.9698 32.47 23.79C32.3699 23.6811 32.247 23.5957 32.11 23.54C32.11 23.54 32.86 27.65 34.68 28.31C36.5 28.97 36.84 27.55 36.89 27.17C36.9509 26.0319 36.665 24.9021 36.07 23.93C36.07 23.63 36.05 23.83 36 23.7Z" fill="#F06351"/>
<path d="M34.3001 24.84C33.8321 24.7727 33.3826 24.6113 32.9787 24.3656C32.5748 24.1198 32.2249 23.7947 31.9501 23.41C31.9255 23.3825 31.9119 23.3469 31.9119 23.31C31.9119 23.2731 31.9255 23.2375 31.9501 23.21C31.9631 23.1967 31.9787 23.1861 31.9958 23.1789C32.013 23.1717 32.0314 23.168 32.0501 23.168C32.0687 23.168 32.0871 23.1717 32.1043 23.1789C32.1215 23.1861 32.137 23.1967 32.1501 23.21C32.3975 23.5572 32.7115 23.8517 33.0737 24.0766C33.4359 24.3015 33.8391 24.4522 34.2601 24.52C34.593 24.495 34.9153 24.3913 35.2005 24.2174C35.4856 24.0436 35.7253 23.8046 35.9001 23.52L36.0401 23.33L36.1401 23.55C36.1401 23.55 36.5201 24.31 37.1401 24.35C37.7601 24.39 38.2001 23.93 38.7701 23.06C38.7913 23.0282 38.8243 23.0061 38.8618 22.9986C38.8993 22.9911 38.9382 22.9988 38.9701 23.02C39.0019 23.0412 39.024 23.0742 39.0315 23.1117C39.039 23.1492 39.0313 23.1882 39.0101 23.22C38.3434 24.2 37.7134 24.67 37.1201 24.63C36.8907 24.5996 36.6711 24.5183 36.4773 24.392C36.2835 24.2656 36.1204 24.0975 36.0001 23.9C35.8044 24.1732 35.5503 24.3994 35.2562 24.562C34.9621 24.7246 34.6355 24.8196 34.3001 24.84Z" fill="black"/>
<path d="M36.26 38.3C38.3311 38.3 40.01 36.6211 40.01 34.55C40.01 32.4789 38.3311 30.8 36.26 30.8C34.1889 30.8 32.51 32.4789 32.51 34.55C32.51 36.6211 34.1889 38.3 36.26 38.3Z" fill="#FDC305"/>
<path d="M41.23 31.5L38.1 32.81L39.25 27.18L31.75 36.94L34.88 35.63L33.73 41.27L41.23 31.5ZM33.84 35.33L38 29.92L37.19 33.92L39.19 33.1L35 38.52L35.81 34.52L33.84 35.33Z" fill="#111111"/>
<path d="M32.4399 33.86C33.0585 33.86 33.5599 33.3586 33.5599 32.74C33.5599 32.1214 33.0585 31.62 32.4399 31.62C31.8214 31.62 31.3199 32.1214 31.3199 32.74C31.3199 33.3586 31.8214 33.86 32.4399 33.86Z" fill="#111111"/>
<path d="M38.96 37.92C39.3963 37.92 39.75 37.5663 39.75 37.13C39.75 36.6937 39.3963 36.34 38.96 36.34C38.5237 36.34 38.17 36.6937 38.17 37.13C38.17 37.5663 38.5237 37.92 38.96 37.92Z" fill="#111111"/>
<path d="M39.9199 35.75C40.1132 35.75 40.2699 35.5933 40.2699 35.4C40.2699 35.2067 40.1132 35.05 39.9199 35.05C39.7266 35.05 39.5699 35.2067 39.5699 35.4C39.5699 35.5933 39.7266 35.75 39.9199 35.75Z" fill="#111111"/>
<path d="M45.88 21.16C44.0749 22.7873 42.3748 24.5274 40.79 26.37C39.2114 28.1993 37.43 29.8432 35.48 31.27C35.26 30.74 33.85 29.75 33.85 29.75C33.85 29.75 30.71 27.6 28.65 25.91C27.5364 24.9825 26.4873 23.9802 25.51 22.91L23.51 22.8C26.397 27.0172 30.6266 30.1329 35.51 31.64C36.37 31.5 38.79 29.77 40.6 28.36C42.7414 26.5389 44.7467 24.5636 46.6 22.45C47.0981 21.858 47.4844 21.1803 47.74 20.45C46.6 20.83 45.88 21.16 45.88 21.16Z" fill="#F06351"/>
<path d="M65.22 3.5L56.76 12.94L55.54 10.95L63.69 0L65.22 3.5Z" fill="#FDC305"/>
<path d="M62.65 17.26L68.19 13.15L67.41 9.41L62.01 14.22L62.65 17.26Z" fill="#FDC305"/>
<path d="M59.92 49.37L66.05 52.55L69.06 50.21L62.37 47.46L59.92 49.37Z" fill="#FDC305"/>
<path d="M1.94995 5.97L5.01995 2.61L14.31 11.61L13.09 13.89L1.94995 5.97Z" fill="#FDC305"/>
<path d="M7.38003 16.28L2.68003 13.15L0.280029 17.02L5.43003 19.42L7.38003 16.28Z" fill="#FDC305"/>
<path d="M13.91 52.55L9.35999 55.9L12.16 59.48L16.18 55.46L13.91 52.55Z" fill="#FDC305"/>
<path d="M25.93 28C25.93 28 22.12 26.56 20.72 26.17C20.0626 25.8824 19.3367 25.7889 18.6279 25.9005C17.9192 26.0122 17.2571 26.3243 16.72 26.8C16.172 27.2798 15.7338 27.8721 15.4353 28.5364C15.1368 29.2008 14.9849 29.9217 14.99 30.65C15.2014 31.1148 15.3623 31.6009 15.47 32.1C15.52 32.58 14.27 32.53 13.47 32.53C12.67 32.53 12.55 31.09 13.18 29.4C13.6715 28.1005 14.2807 26.8486 15 25.66C9.55 28.5 0 35.06 0 35.06C2.73169 34.8953 5.47264 34.9756 8.19 35.3C13.44 35.83 13.19 39.97 13.19 39.97C15.0366 39.4609 16.9184 39.0899 18.82 38.86C20.94 38.72 21.09 40.98 21.09 40.98L21.62 44.84C22.4248 43.9693 23.3123 43.1789 24.27 42.48C25.5045 41.4918 27.0763 41.0253 28.65 41.18L25.93 28Z" fill="#F06351"/>
<path d="M85.6599 42C84.6298 40.4735 84.1372 38.6475 84.2599 36.81V29.31C84.13 27.459 84.6151 25.6169 85.6399 24.07C86.5666 22.8767 88.1499 22.2833 90.3899 22.29C92.6299 22.2967 94.1466 22.82 94.9399 23.86C95.9073 25.1488 96.3793 26.7423 96.2699 28.35V30.11H92.1299V28.2C92.1244 27.6974 92.0809 27.196 91.9999 26.7C91.9499 26.3409 91.785 26.0077 91.5299 25.75C91.3725 25.615 91.1897 25.5127 90.9922 25.4492C90.7947 25.3856 90.5866 25.3621 90.3799 25.38C90.0831 25.3357 89.7799 25.3839 89.5115 25.5181C89.2431 25.6523 89.0226 25.866 88.8799 26.13C88.617 26.8323 88.5013 27.5811 88.5399 28.33V37.85C88.4943 38.6038 88.628 39.3578 88.9299 40.05C89.0742 40.2997 89.2883 40.5019 89.5459 40.6315C89.8035 40.7612 90.0934 40.8128 90.3799 40.78C90.6615 40.8198 90.9484 40.7697 91.1998 40.6368C91.4512 40.5039 91.6542 40.2951 91.7799 40.04C92.0218 39.3364 92.127 38.5931 92.0899 37.85V35.85H96.2299V37.58C96.3518 39.2114 95.9183 40.8361 94.9999 42.19C94.1199 43.29 92.5999 43.83 90.4399 43.83C88.2799 43.83 86.5899 43.23 85.6599 42Z" fill="#111111"/>
<path d="M101.91 22.58H106.65L110.65 43.58H106.71L106 38.94H102.68L101.88 43.55H97.88L101.91 22.58ZM105.56 36.3L104.3 27.86L103.05 36.3H105.56Z" fill="#111111"/>
<path d="M113.72 25.74H110.48V22.58H121.2V25.74H118V43.55H113.71L113.72 25.74Z" fill="#111111"/>
<path d="M129.61 22.58H137.74V24.76H132.54V31.69H136.76V33.76H132.54V41.45H137.79V43.55H129.61V22.58Z" fill="#444444"/>
<path d="M140.15 22.58H142.15L148.15 36.51V22.58H150.59V43.58H148.72L142.72 29.26V43.55H140.24L140.15 22.58Z" fill="#444444"/>
<path d="M153.82 22.58H161.94V24.76H156.74V31.69H161V33.76H156.78V41.45H162V43.55H153.82V22.58Z" fill="#444444"/>
<path d="M164.35 22.58H168.57C170.233 22.4462 171.889 22.9107 173.24 23.89C174.24 24.76 174.73 26.18 174.73 28.15C174.73 30.8167 173.867 32.4467 172.14 33.04L175.14 43.55H172.3L169.55 33.71H167.28V43.55H164.35V22.58ZM168.35 31.58C169.313 31.6732 170.277 31.402 171.05 30.82C171.364 30.4481 171.599 30.0158 171.74 29.5498C171.881 29.0837 171.925 28.5938 171.87 28.11C171.89 27.4316 171.792 26.7548 171.58 26.11C171.494 25.8722 171.361 25.6542 171.189 25.4687C171.018 25.2831 170.81 25.134 170.58 25.03C169.931 24.7637 169.231 24.6441 168.53 24.68H167.24V31.62L168.35 31.58Z" fill="#444444"/>
<path d="M178.67 42C177.714 40.3866 177.271 38.5208 177.4 36.65V29.65C177.366 28.2992 177.534 26.9508 177.9 25.65C178.189 24.6721 178.803 23.8219 179.64 23.24C180.651 22.6307 181.821 22.3382 183 22.4C183.762 22.3275 184.532 22.4224 185.254 22.678C185.976 22.9336 186.633 23.3439 187.18 23.88C188.139 25.224 188.593 26.864 188.46 28.51V29.29H185.71V28.64C185.729 27.8626 185.668 27.0852 185.53 26.32C185.439 25.8296 185.168 25.3909 184.77 25.09C184.251 24.7836 183.652 24.6408 183.05 24.68C182.397 24.6241 181.748 24.825 181.24 25.24C180.825 25.6335 180.554 26.1545 180.47 26.72C180.343 27.5437 180.286 28.3767 180.3 29.21V37C180.221 38.1837 180.423 39.3695 180.89 40.46C181.161 40.7954 181.506 41.0643 181.897 41.2461C182.288 41.428 182.716 41.5181 183.147 41.5094C183.578 41.5007 184.002 41.3935 184.386 41.196C184.769 40.9986 185.102 40.716 185.36 40.37C185.842 39.2166 186.051 37.9674 185.97 36.72V35.24H183.31V33.17H188.61V43.55H186.8L186.51 41.14C186.281 41.9407 185.788 42.6403 185.11 43.125C184.433 43.6098 183.612 43.8512 182.78 43.81C181.998 43.879 181.211 43.7492 180.493 43.4328C179.774 43.1163 179.147 42.6235 178.67 42Z" fill="#444444"/>
<path d="M194.69 36.15L190.16 22.58H192.88L196.09 32.7L199.25 22.58H202L197.5 36.15V43.55H194.7L194.69 36.15Z" fill="#444444"/>
</g>
<defs>
<clipPath id="clip0">
<rect width="201.99" height="59.48" fill="white"/>
</clipPath>
</defs>
</svg>
